X: 1
T: La Bagatelle  (Bb)
O: England 1788
R: jig
Z: 2011 John Chambers <jc:trillian.mit.edu>
B: John Griffiths' Collection, 1788
S: printed MS of unknown origin
M: 6/8
L: 1/8
K: Bb
F \
| "Bb"Bcd "F"cdB | "C7"ABG "F"F2F | "Eb"GAB "Bb"F2B | "F7"BcA "Bb"B2F \
| "Bb"Bcd "F"cdB | "C7"ABG "F"F2F | "Eb"GAB "Bb"F2B | "F7"BcA "Bb"B2 :|
|: D \
| "Bb"DCD "F7"E2E | EDE "Bb"F2F | FGA "Eb"BAG | "Bb"FED "F7"C2D \
| "Bb"DCD "F7"E2E | EDE "Bb"F2F | "Eb"GAB "Bb"F2B | "F7"BcA "Bb"B2 :|


%%sep 5 1 500

